src/actions/symbolic/drinks-symbolic.svg

<svg width="16px" height="16px" version="1.1" viewBox="0 0 16 16" xmlns="http://www.w3.org/2000/svg">
 <path d="m12 0v1h0.5v3.043c-1.4224 0.23666-2.5 1.4654-2.5 2.957v9h1 5v-1-8c0-1.4916-1.0776-2.7204-2.5-2.957v-3.043h0.5v-1h-2zm-11 2v1 3c0 2.0466 1.5218 3.7221 3.5 3.9668v5.0332h-2.5v1h6v-1h-2.5v-5.0332c1.9782-0.24466 3.5-1.9202 3.5-3.9668v-3-1h-8zm1 1h6v3c0 1.662-1.338 3-3 3s-3-1.338-3-3v-3zm11 2c1.108 0 2 0.892 2 2v8h-4v-8c0-1.108 0.892-2 2-2z" fill="#363636" stop-color="#000000" style="paint-order:stroke fill markers"/>
</svg>

<svg xmlns="http://www.w3.org/2000/svg" width="16" height="16">
    <path fill="#050505" fill-opacity=".7" d="M12 0v1h.5v3.043A2.99 2.99 0 0 0 10 7v9h6V7a2.99 2.99 0 0 0-2.5-2.957V1h.5V0h-2zM1 2v4a3.988 3.988 0 0 0 3.5 3.967V15H2v1h6v-1H5.5V9.967A3.988 3.988 0 0 0 9 6V2H1zm1 1h6v3c0 1.662-1.338 3-3 3S2 7.662 2 6V3zm11 2c1.108 0 2 .892 2 2v8h-4V7c0-1.108.892-2 2-2z" style="paint-order:stroke fill markers"/>
</svg>
